X: 42586
T: Where Is The Cat?
R: slide
M: 12/8
K: Gmajor
|:DED G2 D E2 D G2 D|DED G2 B A2 G E2 D|
DED G2 D E2 D G2 A|BdB c2 B A2 G E2 D:|
|:B3 d2 B AGE c3|BAB d2 B A2 G E2 D|
B3 d2 B AGE c3|ege d2 B A2 G E2 D:|

